client/public/assets/icons/utility/case.svg

<?xml version="1.0"?><svg xmlns="http://www.w3.org/2000/svg" width="52" height="52" viewBox="0 0 52 52"><title></title><desc></desc><path fill="#fff" d="m17.2 11.3h2.9c0.4 0 0.7-0.3 0.7-0.7v-2.2h10.3v2.2c0 0.4 0.3 0.7 0.7 0.7h2.9c0.4 0 0.7-0.3 0.7-0.7v-2.2c0-2.4-2-4.4-4.4-4.4h-10.1c-2.4 0-4.4 2-4.4 4.4v2.2c0 0.4 0.2 0.7 0.7 0.7z m26.4 4.4h-35.2c-2.4 0-4.4 2-4.4 4.4v23.5c0 2.4 2 4.4 4.4 4.4h35.2c2.4 0 4.4-2 4.4-4.4v-23.5c0-2.4-2-4.4-4.4-4.4z"></path></svg>

<?xml version="1.0" encoding="utf-8"?>
<!-- Generator: Adobe Illustrator 21.1.0, SVG Export Plug-In . SVG Version: 6.00 Build 0)  -->
<svg version="1.1" id="Layer_1" xmlns="http://www.w3.org/2000/svg" xmlns:xlink="http://www.w3.org/1999/xlink" x="0px" y="0px"
	 width="52px" height="52px" viewBox="0 0 52 52" enable-background="new 0 0 52 52" xml:space="preserve">
<title></title>
<desc></desc>
<path fill="#FFFFFF" d="M17.2,11.3h2.9c0.4,0,0.7-0.3,0.7-0.7V8.4h10.3v2.2c0,0.4,0.3,0.7,0.7,0.7h2.9c0.4,0,0.7-0.3,0.7-0.7V8.4
	c0-2.4-2-4.4-4.4-4.4H20.9c-2.4,0-4.4,2-4.4,4.4v2.2C16.5,11,16.7,11.3,17.2,11.3z M43.6,15.7H8.4c-2.4,0-4.4,2-4.4,4.4v23.5
	C4,46,6,48,8.4,48h35.2c2.4,0,4.4-2,4.4-4.4V20.1C48,17.7,46,15.7,43.6,15.7z"/>
</svg>
